svgs/thin/snake.svg

<svg xmlns="http://www.w3.org/2000/svg" viewBox="0 0 512 512"><!--! Font Awesome Pro 6.4.0 by @fontawesome - https://fontawesome.com License - https://fontawesome.com/license (Commercial License) Copyright 2023 Fonticons, Inc. --><path d="M301.9 80h-9.3H172C103.5 80 48 135.5 48 204s55.5 124 124 124H348c28.7 0 52 23.3 52 52s-23.3 52-52 52H256.1h0l-.1 0 0 0-140.8 0c-10.6 0-21 2.1-30.8 6.2L22.4 464l62 25.8c9.7 4.1 20.2 6.2 30.8 6.2h60.7 0l.1 0h0H348c64.1 0 116-51.9 116-116s-51.9-116-116-116H172c-33.1 0-60-26.9-60-60s26.9-60 60-60H292.6h9.3l4.6 8.1 1.6 2.8c13.1 23 37.6 37.2 64 37.2c10.8 0 21.4-2.4 31.2-6.9L469 154.4c16.5-7.7 27-24.2 27-42.4s-10.5-34.7-27-42.4L403.3 38.9c-9.8-4.6-20.4-6.9-31.2-6.9c-26.5 0-50.9 14.2-64 37.2l-1.6 2.8L301.9 80zM176 512l-.1 0H115.2c-12.7 0-25.2-2.5-36.9-7.4L7.4 475.1C2.9 473.2 0 468.8 0 464s2.9-9.2 7.4-11.1l70.9-29.5c11.7-4.9 24.2-7.4 36.9-7.4H256l.1 0H348c19.9 0 36-16.1 36-36s-16.1-36-36-36H172C94.7 344 32 281.3 32 204S94.7 64 172 64H292.6l1.6-2.8c16-28 45.7-45.2 77.9-45.2c13.1 0 26.1 2.9 38 8.4l65.7 30.7C497.9 65.4 512 87.6 512 112s-14.1 46.6-36.2 56.9L410 199.6c-11.9 5.5-24.8 8.4-38 8.4c-32.2 0-61.9-17.3-77.9-45.2l-1.6-2.8H172c-24.3 0-44 19.7-44 44s19.7 44 44 44H348c72.9 0 132 59.1 132 132s-59.1 132-132 132H176zM352 80a16 16 0 1 1 32 0 16 16 0 1 1 -32 0zm16 48a16 16 0 1 1 0 32 16 16 0 1 1 0-32z"/></svg>

<svg xmlns="http://www.w3.org/2000/svg" viewBox="0 0 512 512"><!--! Font Awesome Pro 6.3.0 by @fontawesome - https://fontawesome.com License - https://fontawesome.com/license (Commercial License) Copyright 2023 Fonticons, Inc. --><path d="M384 80C384 88.84 376.8 96 368 96C359.2 96 352 88.84 352 80C352 71.16 359.2 64 368 64C376.8 64 384 71.16 384 80zM352 144C352 135.2 359.2 128 368 128C376.8 128 384 135.2 384 144C384 152.8 376.8 160 368 160C359.2 160 352 152.8 352 144zM176 512H175.9H115.2C102.5 512 89.98 509.5 78.28 504.6L7.385 475.1C2.913 473.2 0 468.8 0 464C0 459.2 2.913 454.8 7.385 452.9L78.28 423.4C89.98 418.5 102.5 416 115.2 416H256H256.1H348C367.9 416 384 399.9 384 380C384 360.1 367.9 344 348 344H172C94.68 344 32 281.3 32 204C32 126.7 94.68 64 172 64H292.6L294.2 61.22C310.1 33.26 339.9 16 372.1 16C385.2 16 398.2 18.87 410 24.42L475.8 55.08C497.9 65.4 512 87.6 512 112C512 136.4 497.9 158.6 475.8 168.9L410 199.6C398.2 205.1 385.2 208 372.1 208C339.9 208 310.1 190.7 294.2 162.8L292.6 160H172C147.7 160 128 179.7 128 204C128 228.3 147.7 248 172 248H348C420.9 248 480 307.1 480 380C480 452.9 420.9 512 348 512L176 512zM301.9 80H172C103.5 80 48 135.5 48 204C48 272.5 103.5 328 172 328H348C376.7 328 400 351.3 400 380C400 408.7 376.7 432 348 432H256.1H256H115.2C104.6 432 94.18 434.1 84.43 438.2L22.4 464L84.43 489.8C94.18 493.9 104.6 496 115.2 496H175.9H176H348C412.1 496 464 444.1 464 380C464 315.9 412.1 264 348 264H172C138.9 264 112 237.1 112 204C112 170.9 138.9 144 172 144H301.9L308 154.8C321.2 177.8 345.6 192 372.1 192C382.9 192 393.5 189.6 403.3 185.1L468.1 154.4C485.5 146.7 496 130.2 496 111.1C496 93.81 485.5 77.27 468.1 69.58L403.3 38.92C393.5 34.36 382.9 31.1 372.1 31.1C345.6 31.1 321.2 46.18 308 69.16L301.9 80z"/></svg>
